icons/linear-new-other-technology-engine-atom-nuclear.svg

<svg xmlns="http://www.w3.org/2000/svg" width="32px" height="32px" viewBox="0 0 32 32" version="1.1">
    <title>linear-new-other-technology-engine-atom-nuclear</title>
    <g id="linear-new-other-technology-engine-atom-nuclear" stroke-width="1" fill-rule="evenodd">
        <path d="M28.0208153,3.97918472 C30.5435187,6.50188809 30.0228117,11.1766343 27.2825495,15.9995548 C30.0227396,20.822719 30.5436931,25.4979374 28.0208153,28.0208153 C25.4979374,30.5436931 20.822719,30.0227396 15.9994444,27.2819808 C11.1766343,30.0228117 6.50188809,30.5435187 3.97918472,28.0208153 C1.45648135,25.4981119 1.97718833,20.8233657 4.71745053,16.0004452 C1.97726037,11.177281 1.45630686,6.50206258 3.97918472,3.97918472 C6.50206258,1.45630686 11.177281,1.97726037 16.0005556,4.71801916 C20.8233657,1.97718833 25.4981119,1.45648135 28.0208153,3.97918472 Z M26.0563236,17.9516034 L25.8754262,18.211428 C24.8782449,19.6260532 23.7008204,21.0271017 22.363961,22.363961 C20.9451631,23.782759 19.4540664,25.021979 17.9511717,26.0567473 C21.6598821,27.92735 24.9912876,28.2219158 26.6066017,26.6066017 C28.2219158,24.9912876 27.92735,21.6598821 26.0563236,17.9516034 Z M5.94325273,17.9511717 L5.92453998,17.9896272 C4.07065797,21.6826429 3.78360713,24.9968106 5.39339828,26.6066017 C7.008693,28.2218964 10.340038,27.9273571 14.0482631,26.0563909 C12.5453671,25.0215081 11.0545674,23.7824894 9.63603897,22.363961 C8.21724104,20.9451631 6.97802102,19.4540664 5.94325273,17.9511717 Z M15.9998477,7.05452701 L15.9721304,7.07230536 C14.3216877,8.12094501 12.6444668,9.45603827 11.0502525,11.0502525 C9.44701502,12.65349 8.10584006,14.3406764 7.05452701,16.0001523 C8.10584006,17.6593236 9.44701502,19.34651 11.0502525,20.9497475 C12.65349,22.552985 14.3406764,23.8941599 16.0001523,24.945473 C17.6593236,23.8941599 19.34651,22.552985 20.9497475,20.9497475 C22.552985,19.34651 23.8941599,17.6593236 24.945473,15.9998477 C23.8941599,14.3406764 22.552985,12.65349 20.9497475,11.0502525 C19.34651,9.44701502 17.6593236,8.10584006 15.9998477,7.05452701 Z M16,13.5 C17.3807119,13.5 18.5,14.6192881 18.5,16 C18.5,17.3807119 17.3807119,18.5 16,18.5 C14.6192881,18.5 13.5,17.3807119 13.5,16 C13.5,14.6192881 14.6192881,13.5 16,13.5 Z M5.39339828,5.39339828 C3.77795874,7.00883783 4.07269572,10.3406354 5.94411238,14.0492606 C6.97794315,12.5460273 8.21719646,11.0548815 9.63603897,9.63603897 C11.0548815,8.21719646 12.5460273,6.97794315 14.04897,5.9431552 C10.3406354,4.07269572 7.00883783,3.77795874 5.39339828,5.39339828 Z M18.2964731,5.77368381 L17.9511717,5.94325273 C19.4540664,6.97802102 20.9451631,8.21724104 22.363961,9.63603897 C23.7824894,11.0545674 25.0215081,12.5453671 26.0561575,14.0479718 C27.9273571,10.340038 28.2218964,7.008693 26.6066017,5.39339828 C25.041527,3.82832355 21.8654483,4.05617432 18.2964731,5.77368381 L18.2964731,5.77368381 Z" id="&#24418;&#29366;" fill-rule="nonzero" />
    </g>
</svg>

<svg xmlns="http://www.w3.org/2000/svg" viewBox="0 0 32 32"><path fill="currentColor" d="M28.02 3.98c2.524 2.522 2.003 7.197-.737 12.02 2.74 4.823 3.26 9.498.738 12.02-2.523 2.524-7.198 2.003-12.022-.738-4.822 2.74-9.497 3.262-12.02.739-2.523-2.523-2.002-7.198.738-12.02-2.74-4.824-3.26-9.499-.738-12.022 2.523-2.523 7.198-2.002 12.022.739 4.822-2.74 9.497-3.262 12.02-.739m-1.964 13.972-.18.26a31.885 31.885 0 0 1-3.512 4.152 31.718 31.718 0 0 1-4.413 3.693c3.709 1.87 7.04 2.165 8.656.55 1.615-1.616 1.32-4.947-.55-8.655m-20.113 0-.018.038c-1.854 3.693-2.141 7.007-.532 8.617 1.616 1.615 4.947 1.32 8.655-.55a31.722 31.722 0 0 1-4.412-3.693 31.718 31.718 0 0 1-3.693-4.413M16 7.054l-.028.017a29.092 29.092 0 0 0-4.922 3.978C9.447 12.653 8.106 14.34 7.055 16c1.05 1.66 2.392 3.347 3.995 4.95 1.603 1.603 3.29 2.944 4.95 3.995 1.66-1.05 3.347-2.392 4.95-3.995 1.603-1.603 2.944-3.29 3.995-4.95-1.05-1.66-2.392-3.347-3.995-4.95-1.603-1.603-3.29-2.944-4.95-3.995m0 6.445a2.5 2.5 0 1 1 0 5 2.5 2.5 0 0 1 0-5M5.393 5.393c-1.615 1.616-1.32 4.948.551 8.656a31.627 31.627 0 0 1 3.692-4.413 31.718 31.718 0 0 1 4.413-3.693c-3.708-1.87-7.04-2.165-8.656-.55m12.903.38-.345.17a31.718 31.718 0 0 1 4.413 3.693 31.718 31.718 0 0 1 3.692 4.412c1.871-3.708 2.166-7.04.55-8.655-1.564-1.565-4.74-1.337-8.31.38"/></svg>
